X: 072149
T: Golden Egg (The)
C: Joe Liddy
Z: BB
S: "The Leitrim Fiddler" (Dublin 1981)
L: 1/8
M: 4/4
R: reel
Q: 1/4 = 180
K: Ador
EA A2 GABG | A2 BA GEDE | G2 GA BGAG | EGBd eBdB |
A2 BA GABG | EAAB GE D2 | DEGA B2 de | dBGA BA A2 :|
ea a2 agef | g2 (3agf gedB | e2 eg edBA | GE (3GED GABd |
ea a2 agef | g2 ba ge d2 | DEGA B2 de | dBGA BA A2 ||
ea a2 agef | g2 (3agf gedB | A2 Bd eABc | AGEF GABd |
ea a2 abag | efed BAGE | DEGA B2 de | dBGA BA A2 ||
%%%%%%%%%%%%%%%%%%
